flaticon/productivity-and-development/stats-1.svg

<svg xmlns="http://www.w3.org/2000/svg" width="32" height="32" viewBox="0 0 24 24">
    <path d="M 24 0 L 0 0 L 0 20.734375 L 9.160156 20.734375 L 7.058594 24 L 16.941406 24 L 14.839844 20.734375 L 24 20.734375 Z M 8.929688 22.980469 L 10.375 20.734375 L 13.625 20.734375 L 15.070312 22.980469 Z M 22.980469 19.710938 L 1.019531 19.710938 L 1.019531 1.019531 L 22.980469 1.019531 Z M 22.980469 19.710938"/>
    <path d="M 21.371094 2.941406 L 2.628906 2.941406 L 2.628906 17.597656 L 21.371094 17.597656 Z M 20.351562 16.574219 L 3.648438 16.574219 L 3.648438 3.960938 L 20.351562 3.960938 Z M 20.351562 16.574219"/>
    <path d="M 7.703125 10.6875 L 10.667969 12.15625 L 13.515625 8.644531 L 16.242188 11.191406 L 19.699219 6.433594 L 18.871094 5.832031 L 16.09375 9.65625 L 13.410156 7.152344 L 10.390625 10.878906 L 7.582031 9.488281 L 4.300781 12.039062 L 4.929688 12.84375 Z M 7.703125 10.6875"/>
</svg>

<svg xmlns="http://www.w3.org/2000/svg" width="32" height="32" viewBox="0 0 24 24">
    <path d="M24 0H0v20.734h9.16L7.06 24h9.882l-2.101-3.266H24zM8.93 22.98l1.445-2.246h3.25l1.445 2.246zm14.05-3.27H1.02V1.02h21.96zm0 0"/>
    <path d="M21.371 2.941H2.63v14.657H21.37zm-1.02 13.633H3.649V3.961h16.704zm0 0"/>
    <path d="M7.703 10.688l2.965 1.468 2.848-3.511 2.726 2.546L19.7 6.434l-.828-.602-2.777 3.824-2.684-2.504-3.02 3.727-2.808-1.39-3.281 2.55.629.805zm0 0"/>
</svg>
